X:3831
T:Danza (Teberga 4)
C:Trad
Z:Teberga
M:3/8
L:1/8
Q:3/8=66
K:Am
E|: A2 ^G|AcB|A2 A-|ABc|B2 A|G2 F|E2 E-|E z E|
   |A2 ^G|AcB|A2 A-|ABc|B2 A|G2 F|E2 E-|[1 E z E :|[2 E2 z|
